packages/webapp/public/images/template-logos/intercom.svg

<svg width="62" height="62" viewBox="0 0 62 62" fill="none" xmlns="http://www.w3.org/2000/svg">
<g clip-path="url(#clip0_496_1160)">
<path d="M47.1334 33.1911C47.1292 33.5773 46.9728 33.9463 46.6982 34.218C46.4236 34.4896 46.053 34.642 45.6667 34.642C45.2804 34.642 44.9098 34.4896 44.6352 34.218C44.3605 33.9463 44.2042 33.5773 44.2 33.1911V20C44.2042 19.6138 44.3605 19.2448 44.6352 18.9731C44.9098 18.7015 45.2804 18.5491 45.6667 18.5491C46.053 18.5491 46.4236 18.7015 46.6982 18.9731C46.9728 19.2448 47.1292 19.6138 47.1334 20V33.1911ZM46.6215 42.3714C46.3948 42.5655 40.9617 47.1246 31 47.1246C21.0385 47.1246 15.6055 42.5653 15.3788 42.3713C15.0835 42.118 14.9009 41.7579 14.8711 41.3701C14.8412 40.9822 14.9667 40.5984 15.2198 40.3031C15.4724 40.0082 15.8316 39.8255 16.2187 39.7952C16.6058 39.7648 16.9891 39.8893 17.2845 40.1412C17.3707 40.2134 22.2223 44.1911 31.0002 44.1911C39.8882 44.1911 44.6648 40.1847 44.712 40.1443C45.3258 39.6171 46.2534 39.6879 46.7802 40.3033C47.0334 40.5986 47.1589 40.9823 47.1292 41.3702C47.0994 41.758 46.9168 42.1182 46.6215 42.3714ZM14.8666 20C14.8708 19.6138 15.0272 19.2448 15.3018 18.9731C15.5764 18.7015 15.947 18.5491 16.3333 18.5491C16.7196 18.5491 17.0902 18.7015 17.3648 18.9731C17.6395 19.2448 17.7958 19.6138 17.8 20V33.1911C17.7958 33.5773 17.6395 33.9463 17.3648 34.218C17.0902 34.4896 16.7196 34.642 16.3333 34.642C15.947 34.642 15.5764 34.4896 15.3018 34.218C15.0272 33.9463 14.8708 33.5773 14.8666 33.1911V20ZM22.2002 17.0666C22.2061 16.6815 22.3632 16.3142 22.6376 16.044C22.912 15.7738 23.2817 15.6223 23.6668 15.6223C24.0519 15.6223 24.4216 15.7738 24.696 16.044C24.9704 16.3142 25.1275 16.6815 25.1334 17.0666V36.6605C25.1275 37.0456 24.9704 37.4129 24.696 37.6832C24.4216 37.9534 24.0519 38.1049 23.6668 38.1049C23.2817 38.1049 22.912 37.9534 22.6376 37.6832C22.3632 37.4129 22.2061 37.0456 22.2002 36.6605V17.0666ZM29.5334 16.3245C29.5334 16.1318 29.5713 15.9411 29.645 15.7632C29.7187 15.5852 29.8267 15.4235 29.9629 15.2874C30.0991 15.1512 30.2608 15.0431 30.4387 14.9694C30.6167 14.8957 30.8074 14.8578 31 14.8578C31.1926 14.8578 31.3834 14.8957 31.5613 14.9694C31.7393 15.0431 31.901 15.1511 32.0372 15.2873C32.1734 15.4235 32.2815 15.5852 32.3552 15.7631C32.4289 15.9411 32.4668 16.1318 32.4668 16.3245V37.5911C32.4626 37.9773 32.3062 38.3463 32.0316 38.618C31.757 38.8896 31.3864 39.042 31.0001 39.042C30.6138 39.042 30.2431 38.8896 29.9685 38.618C29.6939 38.3463 29.5376 37.9773 29.5334 37.5911V16.3245ZM36.8668 17.0666C36.8727 16.6815 37.0298 16.3142 37.3042 16.044C37.5786 15.7738 37.9483 15.6223 38.3334 15.6223C38.7185 15.6223 39.0882 15.7738 39.3626 16.044C39.637 16.3142 39.7941 16.6815 39.8 17.0666V36.6605C39.7941 37.0456 39.637 37.4129 39.3626 37.6832C39.0882 37.9534 38.7185 38.1049 38.3334 38.1049C37.9483 38.1049 37.5786 37.9534 37.3042 37.6832C37.0298 37.4129 36.8727 37.0456 36.8668 36.6605V17.0666ZM47.5 9H14.5C11.4625 9 9 11.4625 9 14.5V47.5C9 50.5374 11.4625 53 14.5 53H47.5C50.5375 53 53 50.5374 53 47.5V14.5C53 11.4625 50.5375 9 47.5 9Z" fill="#1F8DED"/>
</g>
<defs>
<clipPath id="clip0_496_1160">
<rect width="44" height="44" fill="white" transform="translate(9 9)"/>
</clipPath>
</defs>
</svg>

<svg xmlns="http://www.w3.org/2000/svg" width="62" height="62" fill="none"><g clip-path="url(#A)"><path d="M47.133 33.191c-.004.386-.161.755-.435 1.027s-.645.424-1.032.424-.757-.152-1.032-.424-.431-.641-.435-1.027V20c.004-.386.16-.755.435-1.027s.645-.424 1.032-.424.757.152 1.032.424.431.641.435 1.027v13.191zm-.512 9.18c-.227.194-5.66 4.753-15.621 4.753s-15.394-4.559-15.621-4.753c-.295-.253-.478-.613-.508-1.001s.096-.772.349-1.067.612-.478.999-.508.77.094 1.066.346c.086.072 4.938 4.05 13.716 4.05 8.888 0 13.665-4.006 13.712-4.047.614-.527 1.541-.456 2.068.159.253.295.379.679.349 1.067s-.212.748-.508 1.001zM14.867 20c.004-.386.161-.755.435-1.027s.645-.424 1.032-.424.757.152 1.031.424.431.641.435 1.027v13.191c-.004.386-.16.755-.435 1.027s-.645.424-1.031.424-.757-.152-1.032-.424-.431-.641-.435-1.027V20zm7.334-2.933c.006-.385.163-.752.437-1.023s.644-.422 1.029-.422.755.152 1.029.422.431.637.437 1.023v19.594c-.006.385-.163.752-.437 1.023s-.644.422-1.029.422-.755-.151-1.029-.422-.431-.638-.437-1.023V17.067zm7.333-.742c0-.193.038-.383.112-.561s.182-.34.318-.476.298-.244.476-.318.369-.112.561-.112.383.038.561.112.34.182.476.318.244.298.318.476.112.369.112.561v21.267c-.004.386-.161.755-.435 1.027s-.645.424-1.031.424-.757-.152-1.032-.424-.431-.641-.435-1.027V16.325zm7.333.742c.006-.385.163-.752.437-1.023s.644-.422 1.029-.422.755.152 1.029.422.431.637.437 1.023v19.594c-.006.385-.163.752-.437 1.023s-.644.422-1.029.422-.755-.151-1.029-.422-.431-.638-.437-1.023V17.067zM47.5 9h-33A5.5 5.5 0 0 0 9 14.5v33a5.5 5.5 0 0 0 5.5 5.5h33a5.5 5.5 0 0 0 5.5-5.5v-33A5.5 5.5 0 0 0 47.5 9z" fill="#1f8ded"/></g><defs><clipPath id="A"><path fill="#fff" transform="translate(9 9)" d="M0 0h44v44H0z"/></clipPath></defs></svg>
